packages/katcn/src/icons/svg/crop.svg

<svg width="24" height="25" viewBox="0 0 24 25" fill="none" xmlns="http://www.w3.org/2000/svg">
<path d="M22 18.112H7.8C7 18.112 6.3 17.412 6.3 16.612V2.31201C6.3 1.71201 5.9 1.31201 5.3 1.31201C4.7 1.31201 4.3 1.71201 4.3 2.31201V4.51201H2C1.4 4.51201 1 4.91201 1 5.51201C1 6.11201 1.4 6.51201 2 6.51201H4.2V16.512C4.2 18.512 5.8 20.012 7.7 20.012H17.7V22.312C17.7 22.912 18.1 23.312 18.7 23.312C19.3 23.312 19.7 22.912 19.7 22.312V20.112H22C22.6 20.112 23 19.712 23 19.112C23 18.512 22.6 18.112 22 18.112Z" fill="black"/>
<path d="M8.60001 6.51201H16.2C17 6.51201 17.7 7.21201 17.7 8.01201V15.612C17.7 16.212 18.1 16.612 18.7 16.612C19.3 16.612 19.7 16.212 19.7 15.612V8.11202C19.7 6.11202 18.1 4.61201 16.2 4.61201H8.60001C8.00001 4.61201 7.60001 5.01201 7.60001 5.61202C7.60001 6.21202 8.10001 6.51201 8.60001 6.51201Z" fill="black"/>
</svg>

<svg xmlns="http://www.w3.org/2000/svg" fill="none" viewBox="0 0 24 25"><path fill="#000" d="M22 18.112H7.8c-.8 0-1.5-.7-1.5-1.5v-14.3c0-.6-.4-1-1-1s-1 .4-1 1v2.2H2c-.6 0-1 .4-1 1s.4 1 1 1h2.2v10c0 2 1.6 3.5 3.5 3.5h10v2.3c0 .6.4 1 1 1s1-.4 1-1v-2.2H22c.6 0 1-.4 1-1s-.4-1-1-1"/><path fill="#000" d="M8.6 6.512h7.6c.8 0 1.5.7 1.5 1.5v7.6c0 .6.4 1 1 1s1-.4 1-1v-7.5c0-2-1.6-3.5-3.5-3.5H8.6c-.6 0-1 .4-1 1s.5.9 1 .9"/></svg>
